X:0521
T:See the Conquering Hero comes
M:C
L:1/8
Q:1/2=90
P:ABA
N:Aird uses a da capo
I: :: || DC
N:last note of first part printed G6 and last note of second part printed d4
Z:Jack Campin * www.campin.me.uk * 2009
K:G
P:A
 d4      B3c |d4    G4     |(AB)(cd)  c2B2   |(B4{AB}) A4|\
(Bc)(de) d2d2|g4    d4     |(cB)(AG) (A4{GA})| G8       :|
P:B
(BA)(Bc) B2B2|A4    G2AB   | c2  B2   A2G2   | G4      F4|\
 BABc    B2B2|e4 (T^c4{Bc})| d2  ed T^c3 B/c/| d8       |]

